images/icon-linkedin.svg

<svg height="128" viewBox="0 0 128 128" width="128" xmlns="http://www.w3.org/2000/svg"><circle cx="64" cy="64" fill="#65737e" r="64"/><g fill="#fff"><path d="m29.1 51.7h14.8v47.8h-14.8zm7.4-23.7a8.6 8.6 0 1 1 -8.6 8.6 8.5 8.5 0 0 1 8.6-8.6"/><path d="m53.3 51.7h14.2v6.6h.2c2-3.8 6.8-7.7 14.1-7.7 15 0 17.8 9.9 17.8 22.7v26.2h-14.9v-23.2c0-5.5-.1-12.7-7.7-12.7s-8.9 6.1-8.9 12.3v23.6h-14.8z"/></g></svg>

<svg id="Linkedin" xmlns="http://www.w3.org/2000/svg" width="128" height="128" viewBox="0 0 128 128"><title>icon-linkedin</title><circle id="linkedin-back" cx="64" cy="64" r="64" fill="#65737e"/><g id="linkedin-linkedin"><path d="M29.1,51.7H43.9V99.5H29.1ZM36.5,28a8.6,8.6,0,1,1-8.6,8.6A8.5,8.5,0,0,1,36.5,28" fill="#fff"/><path d="M53.3,51.7H67.5v6.6h.2c2-3.8,6.8-7.7,14.1-7.7,15,0,17.8,9.9,17.8,22.7V99.5H84.7V76.3c0-5.5-.1-12.7-7.7-12.7s-8.9,6.1-8.9,12.3V99.5H53.3Z" fill="#fff"/></g></svg>
